lib/svgs/underline.svg

<?xml version="1.0" encoding="UTF-8"?>
<svg width="16px" height="16px" viewBox="0 0 16 16" version="1.1" xmlns="http://www.w3.org/2000/svg" xmlns:xlink="http://www.w3.org/1999/xlink">
    <!-- Generator: sketchtool 51.3 (57544) - http://www.bohemiancoding.com/sketch -->
    <title>editor/underline</title>
    <desc>Created with sketchtool.</desc>
    <defs></defs>
    <g id="Icons" stroke="none" stroke-width="1" fill="none" fill-rule="evenodd">
        <g id="Web" transform="translate(-48.000000, -1424.000000)" fill="#000000">
            <g id="editor/underline" transform="translate(48.000000, 1424.000000)">
                <path d="M0.80944534,15.9190917 L15.1905547,15.9190917 C15.637599,15.9190917 16,15.5566907 16,15.1096464 C16,14.662602 15.637599,14.300201 15.1905547,14.300201 L0.80944534,14.300201 C0.362401023,14.300201 0,14.662602 0,15.1096464 C0,15.5566907 0.362401023,15.9190917 0.80944534,15.9190917 L0.80944534,15.9190917 M11.7646093,1.61889068 L11.7646093,7.9989288 C11.7646093,10.0786546 10.0786611,11.7646028 7.99893534,11.7646028 C5.91919814,11.7646028 4.2332483,10.0786563 4.2332483,7.9989288 L4.2332483,1.61889068 L4.73098177,1.61889068 L4.73098177,0 L2.11662415,0 L2.11662415,1.61889068 L2.61435762,1.61889068 L2.61435762,7.9989288 C2.61435762,10.9727456 5.02511022,13.3834934 7.99893534,13.3834934 C10.9727498,13.3834934 13.3835,10.9727432 13.3835,7.9989288 L13.3835,1.61889068 L13.8812334,1.61889068 L13.8812334,0 L11.2668758,0 L11.2668758,1.61889068 L11.7646093,1.61889068 L11.7646093,1.61889068" id="Shape"></path>
            </g>
        </g>
    </g>
</svg>

<svg xmlns="http://www.w3.org/2000/svg" viewBox="0 0 16 16">
    <path d="M.81 15.92h14.38a.81.81 0 1 0 0-1.62H.81a.81.81 0 1 0 0 1.62M11.764 1.618v6.38a3.766 3.766 0 1 1-7.532 0v-6.38h.498V0H2.117v1.619h.497v6.38a5.385 5.385 0 0 0 10.77 0v-6.38h.497V0h-2.614v1.619h.498"/>
</svg>
